app/images/header/logo.svg

<svg width="128" height="55" viewBox="0 0 128 55" fill="none" xmlns="http://www.w3.org/2000/svg">
<g clip-path="url(#clip0_2_734)">
<circle cx="21.4021" cy="27.4021" r="20.026" transform="rotate(-25.7323 21.4021 27.4021)" fill="url(#paint0_radial_2_734)" stroke="url(#paint1_radial_2_734)"/>
<path d="M78.5782 13V42H75.0937L58.891 19.2305H58.6006V42H55V13H58.4845L74.7453 35.8262H75.0356V13H78.5782Z" fill="white"/>
<path d="M84.5565 42V13H102.385V16.1152H88.1571V25.9141H101.05V29.0293H88.1571V42H84.5565Z" fill="white"/>
<path d="M105.699 16.1152V13H128V16.1152H118.65V42H115.049V16.1152H105.699Z" fill="white"/>
</g>
<defs>
<radialGradient id="paint0_radial_2_734" cx="0" cy="0" r="1" gradientUnits="userSpaceOnUse" gradientTransform="translate(21.7179 8.77089) rotate(90.4621) scale(39.1585)">
<stop stop-color="#DEA8FF"/>
<stop offset="0.445112" stop-color="#9D6AD9"/>
<stop offset="1" stop-color="#7A2BF6"/>
</radialGradient>
<radialGradient id="paint1_radial_2_734" cx="0" cy="0" r="1" gradientUnits="userSpaceOnUse" gradientTransform="translate(21.8389 10.37) rotate(80.1061) scale(38.1251)">
<stop stop-color="#E2C1FF" stop-opacity="0.53"/>
<stop offset="1" stop-color="#853DF2" stop-opacity="0.55"/>
</radialGradient>
<clipPath id="clip0_2_734">
<rect width="128" height="55" fill="white"/>
</clipPath>
</defs>
</svg>

<svg width="128" height="55" fill="none" xmlns="http://www.w3.org/2000/svg"><g clip-path="url(#clip0_2_734)"><circle cx="21.402" cy="27.402" r="20.026" transform="rotate(-25.732 21.402 27.402)" fill="url(#paint0_radial_2_734)" stroke="url(#paint1_radial_2_734)"/><path d="M78.578 13v29h-3.484L58.89 19.23h-.29V42H55V13h3.484l16.261 22.826h.29V13h3.543zm5.978 29V13h17.829v3.115H88.157v9.8h12.893v3.114H88.157V42h-3.6zm21.143-25.885V13H128v3.115h-9.35V42h-3.601V16.115h-9.35z" fill="#fff"/></g><defs><radialGradient id="paint0_radial_2_734" cx="0" cy="0" r="1" gradientUnits="userSpaceOnUse" gradientTransform="rotate(90.462 6.509 15.157) scale(39.1585)"><stop stop-color="#DEA8FF"/><stop offset=".445" stop-color="#9D6AD9"/><stop offset="1" stop-color="#7A2BF6"/></radialGradient><radialGradient id="paint1_radial_2_734" cx="0" cy="0" r="1" gradientUnits="userSpaceOnUse" gradientTransform="rotate(80.106 4.752 18.174) scale(38.1251)"><stop stop-color="#E2C1FF" stop-opacity=".53"/><stop offset="1" stop-color="#853DF2" stop-opacity=".55"/></radialGradient><clipPath id="clip0_2_734"><path fill="#fff" d="M0 0h128v55H0z"/></clipPath></defs></svg>
